!!!OTL: Verschlafener Jaeger
!!!OTL-incipit:Es ging ein Jaeger wohl jagen
!!!ARE: Europa, Mitteleuropa, Deutschland (BRD), Nordrhein - Westfalen, Gummersbach,
!!    Berghausen
!!!YOR: 7, S. 217
!!    1933 aufgezeichnet (vor)
!!!SCT: Q0152L
!!!TXL: @@DE
!!!YEM: Copyright 1995, estate of Helmut Schaffrath.
**kern	**text
*ICvox	*
*M6/8	*
*k[]	*
*C:	*
!LO:TX:a:t=142 Rheinland	!
{8g	Es
=1	=1
4g	gieng
8g	ein
8gL	Jä-
8g	-ger
8gJ	wohl
=2	=2
4.g	ja-
4e}	-gen
{8g	drei
=3	=3
4cc	Vier-
8cc	-tel-
8ccL	-stündchen
8b	.
8ccJ	vor
=4	=4
(4ee	Ta-
8dd)	.
(8ccL	-gen,
8bJ)}	.
{8a	wohl
=5	=5
4g	in
8g	den
(8gL	grü-
8a)	.
8bJ	-nen
=6	=6
8cc	Wald,
8r	.
8ee	ja,
4ee}	ja,
{8cc	wohl
=7	=7
4dd	in
8dd	den
(8bL	grü-
8a)	.
8bJ	-nen
=8	=8
4cc	Wald.
8r	.
4r}	.
{8g	hal-
=9	=9
(8gL	-li
8e)	.
8gJ	hal-
4cc	-lo,
8cc	hal-
=10	=10
(8ccL	-li
8g)	.
8ccJ	hal-
4ee}	-lo,
{8ee	wohl
=11	=11
4dd	in
8dd	den
(8bL	grü-
8a)	.
8bJ	-nen
=12	=12
4cc	Wald.
8r	.
4r}	.
==	==
!!!AGN: Ballade, Verfuehrung, Versagen, Spott
!! Die letzten beiden Zeilen = Refrain , z.T. auf sinnfreie Silben.
!!!ONB: ESAC (Essen Associative Code) Database: BALLADE
!!!AMT: compound duple
!!!AIN: vox
!!!EED: Helmut Schaffrath
!!!EEV: 1.0
!!!source: Deutsche Volkslieder mit ihren Melodien Balladen. Herausgegeben vom Deutschen Volksliedarchiv. Siebenterer Band. Freiburg/Breisgau 1982.
!!!page: 217
!!!ENC: Anna Maria Matuszewska
!!!EEV: 2025/03/07
*-	*-
